setcps (180/60/4)


d1
    $ superimpose (
        (# bpf 7000)
        . (# bpq 9)
        . (# lpf 20000)
    )
    $ slow 2
    $ juxBy 0.4 (rev)
    $ superimpose (
        (# legato 0.4)
        . (|+ note 0.1)
        . (# lpf 5000)
    )
    $ fast "2 [3 1]"
    $ note "13 0 -2 -7 -8"
    |+ note "-13"
    # s "braids"
    # model 32
    # timbre 0.6
    # color 0.5
    # tilt 0.1
    # mirror 0
    # lpf 5000
    # legato "1 0.5 2"
    # sdelay 0.33 (3/6.66) 0.4
    # verb 0.2 0.8 0.7 0.4 0.1
    # comp 1 #compRatio 100 # compThreshold 0.8
    # sidechain 0.5
    # sidechainFrom 3
    # gain 1.3







hush

































