setcps (170/60/4)




vcv1    
    $ stack [
        struct "{1 1 1 1@1.5 1@1.5 1@1.5}%8"
        $ vc1 (
            segment 16
            $ range 0 3
            $ (fast "{17 22 46}%4" tri)
        )
        |% vc 1.5
    ]


hush































