setcps 0.7

p 1 
  $ stack [
      superimpose (slow 4 . (# model 1) . (|* gain 0.8) . (# tilt 0) . (|* sustain (segment 16 $ range 0.5 3 $ shperlin 89)))$
      struct "1*[8|7|6]*8"
      $ note (scale "major" $ floor <$> (segment 32 $ rangex 0.1 28  $ restart "{1@5}%1" $ (fast 5 tri)))
      # gain (segment 32 $ range 0.6 1 $ restart "1" $ shrand 89)
      # s "plaits" # model 3
      # tilt 0
      # sustain 2
      # harm (saw)
      # morph (isaw)
      |+ note (-11)
  ]
