setbpm 130

p 1 
  $ stack [
    struct (steps 8 "1 1@3")
    $ s "bs_sine"
    # freq 80
    # tilt 0
    # pitch_env (12 * 1)
    ,
    struct (steps 8 "1@2 1@5 1@2")
    $ s "bs_sine"
    # freq 50
    # tilt 0
    # pitch_env (12 * 4)
    # gain 0.9
  ]
