setcps 0.4

p 1
  $ jux (rev . (|+ n 143) . sh 1)
  $ superimpose ((|+ n 2) . (zoom (0, (1/3))))
  $ n (run 16 * 17)
  # s "leg_korg"
  |+ n 10
  # legato 1
  # gain (segment 16 $ (fast (range 1 3 (fast 3 saw)) square))
  |* gain 0.8
